src/images/skill/bushcraft/holy.svg

<svg xmlns="http://www.w3.org/2000/svg" viewBox="0 0 512 512" style="height: 512px; width: 512px;"><g class="" transform="translate(0,0)" style=""><path d="M337.89 23.049c-1.447 0-2.916.04-4.405.125-13.522.765-28.81 5.12-45.807 14.37-14.248-9.434-30.203-13.02-45.844-12.74-10.91.196-21.667 2.264-31.578 5.518-8.03 2.637-15.612 5.91-22.5 9.68l.297-1.398c-15.734-3.344-30.156-4.862-43.314-4.872-91.41-.069-121.763 72.622-106.63 111.397-4.842 4.315-8.46 8.932-10.91 13.842-5.762 11.552-3.789 24.304 2.61 33.297 7.21 10.131 19.422 16.818 32.547 17.796-1.86 11.654 2.044 22.84 9.646 29.905 5.89 5.473 13.934 8.712 22.45 8.09 3.116-.228 6.238-1.001 9.267-2.286 8.315 6.24 16.012 10.021 23.424 11.625 9.25 2.002 17.991.13 24.553-3.978 6.73-4.213 11.389-10.08 14.734-16.102 29.31 42.194 26.042 91.983 23.527 98.682-19.298 51.407-15.086 47.182-32 64-23.146 23.016-88.07 37.148-87.833 43.303.367 9.532 57.123 8.392 99.205 1.527 0 0-30.556 47.147-25.264 50.117 5.292 2.97 60.773-42.722 80.725-41.281 4.722.341 45.077 52.643 62.39 41.604 4.3-2.743-32.135-36.82-30.705-39.086 1.652-2.618 107.222 33.016 114.99 25.39-10.073-19.09-54.035-35.533-77.7-50.568 49.481-7.228 157.867 26.291 155.34 12.797l-77.019-37.295c21.03 1.235 41.769 1.37 62.33-1.135 2.603-13.104-172.876-34.03-118.976-115.17l22.826-34.363c3.451 3.433 7.63 6.348 12.04 8.937 9.846 5.783 21.606 9.749 33.12 10.444 11.515.695 24.123-2.227 30.938-12.797 1.574-2.441 2.718-5.111 3.48-7.988 26.557-5.65 45.885-30.761 47.932-58.19 1.052-14.103-3.121-28.787-13.215-41.346 18.813-40.772 16.948-74.175.467-93.504-8.257-9.683-20.211-15.186-33.072-15.453-8.128-.168-16.575 1.646-24.985 5.375-7.376-8.493-17.106-17.184-29.883-22.74-8-3.478-17.074-5.524-27.199-5.53zm20.02 22.037c18.078 7.86 29.606 25.58 36.815 36.373l14.969-9.996c-1.009-1.51-2.179-3.297-3.485-5.244 12.21-4.138 25.434-1.893 33.122 6.857 9.518 11.163 13.513 34.768-.68 68.733-7.145-5.16-15.764-9.57-25.944-12.918-.126-4.086-.717-8.123-1.945-12.09-4.302-13.894-17.137-24.614-37.474-29.348l-4.082 17.531c16.663 3.88 22.045 9.661 24.36 17.141 2.317 7.48.65 18.985-3.816 32.344l17.073 5.707c1.455-4.354 2.764-8.707 3.783-13.04 30.396 10.817 38.569 29.704 37.22 47.77-1.349 18.083-14.316 35.407-29.896 40.848-1.036-5.31-2.844-11.053-5.43-17.248l-16.609 6.933c6.675 15.993 5.4 24.042 3.344 27.23-2.056 3.19-6.796 5.063-14.723 4.585-7.926-.478-17.7-3.657-25.092-7.998-5.19-3.048-8.763-6.754-10.568-9.352l6.57-9.89c12.305-18.524-25.896-38.066-33.756-31.342-5.589 4.781-11.096 9.735-16.503 14.54-7.772-4.822-15.141-12.949-17.108-20.782 6.823-2.372 13.738-6.333 20.531-12.086l-11.634-13.735c-19.858 14.453-31.238 13.054-48.356.698l8.026-38.18-15.883-20.012c-34.25 117.864-72.602 75.597-125.162 55.801-4.492-1.692-11.55 24.529-5.62 27.084 18.27 7.873 32.55 18.216 43.692 29.754-2.76 6.632-6.872 13.508-11.504 16.408-15.942 4.844-27.026-5.825-38.156-14.805-12.245 16.584-28.445-2.625-22.15-16.244a45.055 45.055 0 0 0 10.779-6.119l-10.928-14.3c-11.468 7.848-28.985 6.068-37.215-4.862-10.406-17.93 17.309-31.686 27.156-35.86l-6.88-16.632a125.588 125.588 0 0 0-11.067 5.2c-4.31-19.623 5.794-58.169 45.63-74.9-1.704 8.402-4.525 19.05-8.6 24.422C85.528 90.897 69.482 96.2 69.482 96.2s16.046 5.303 21.23 12.137c7.332 9.665 10.616 36.412 10.616 36.412s3.285-26.747 10.617-36.412c5.184-6.834 21.23-12.137 21.23-12.137s-16.046-5.302-21.23-12.137c-4.322-5.697-7.227-17.307-8.893-25.898 16.694-6.152 38.232-8.605 65.608-4.732-6.335 5.822-11.16 12.22-13.965 18.964l16.619 6.913c21.524-29.513 68.566-44.494 98.994-30.948a225.866 225.866 0 0 0-7.637 5.541L273.57 68.23c26.162-17.343 54.859-35.716 84.342-23.143zm-40.783 26.523s-4.436 25.408-14.343 34.59c-7.006 6.493-28.69 11.531-28.69 11.531s21.684 5.037 28.69 11.53c9.907 9.182 14.343 34.592 14.343 34.592s4.44-25.41 14.346-34.592c7.005-6.493 28.688-11.53 28.688-11.53s-21.683-5.038-28.688-11.53c-9.907-9.183-14.346-34.59-14.346-34.59zM204.713 180.412s3.936 27.906 12.723 37.99c6.213 7.131 25.445 12.664 25.445 12.664s-19.232 5.534-25.445 12.664c-8.787 10.085-12.723 37.993-12.723 37.993s-3.936-27.908-12.722-37.993c-6.213-7.13-25.446-12.664-25.446-12.664s19.233-5.533 25.446-12.664c8.786-10.084 12.722-37.99 12.722-37.99zm39.86 6.026c8.428 4.896 16.792 8.232 25.836 8.664 4.681 13.622 10.65 22.939 20.617 30.273-14.31 11.672-27.177 19.335-37.069 14.625-16.273-17.855-13.966-31.762-9.384-53.563zM77.416 261.27s-3.719 21.579-12.025 29.376c-5.873 5.514-24.055 9.791-24.055 9.791s18.182 4.28 24.055 9.793c8.306 7.798 12.025 29.377 12.025 29.377s3.721-21.579 12.028-29.377c5.873-5.513 24.055-9.792 24.055-9.792s-18.182-4.278-24.055-9.792c-8.307-7.797-12.028-29.376-12.028-29.376zm362.8 9.273s-4.95 31.7-16 43.156c-7.814 8.1-32 14.387-32 14.387s24.186 6.286 32 14.387c11.05 11.455 16 43.156 16 43.156s4.949-31.7 16-43.156c7.813-8.1 32-14.387 32-14.387s-24.187-6.286-32-14.387c-11.051-11.456-16-43.156-16-43.156zm-135.401 67.744s3.211 17.538 10.38 23.875c5.07 4.481 20.764 7.96 20.764 7.96s-15.693 3.475-20.763 7.956c-7.17 6.338-10.381 23.877-10.381 23.877s-3.211-17.54-10.381-23.877c-5.07-4.481-20.764-7.957-20.764-7.957s15.694-3.478 20.764-7.959c7.17-6.337 10.38-23.875 10.38-23.875zM188.66 382.828s2.495 14.802 8.064 20.15c3.938 3.783 16.127 6.717 16.127 6.717s-12.189 2.935-16.127 6.717c-5.57 5.349-8.064 20.15-8.064 20.15s-2.494-14.801-8.063-20.15c-3.938-3.782-16.129-6.717-16.129-6.717s12.191-2.934 16.13-6.716c5.568-5.35 8.062-20.15 8.062-20.15z" fill="#fff" fill-opacity="1"></path></g></svg>

<svg xmlns="http://www.w3.org/2000/svg" viewBox="0 0 512 512" style="height: 512px; width: 512px;"><defs><linearGradient x1="0" x2="1" y1="0" y2="1" id="cathelineau-holy-oak-gradient-1"><stop offset="0%" stop-color="#417505" stop-opacity="1"></stop><stop offset="100%" stop-color="#7ed321" stop-opacity="1"></stop></linearGradient></defs><g class="" transform="translate(0,0)" style=""><g><path d="M337.89 23.049C336.443 23.049 334.974 23.089 333.485 23.174C319.963 23.939 304.675 28.294 287.678 37.544C273.43 28.11 257.475 24.524 241.834 24.804C230.924 25 220.167 27.068 210.256 30.322C202.226 32.959 194.644 36.232 187.756 40.002L188.053 38.604C172.319 35.26 157.897 33.742 144.739 33.732C53.329 33.663 22.976 106.354 38.109 145.129C33.267 149.444 29.649 154.061 27.199 158.971C21.437 170.523 23.41 183.275 29.809 192.268C37.019 202.399 49.231 209.086 62.356 210.064C60.496 221.718 64.4 232.904 72.002 239.969C77.892 245.442 85.936 248.681 94.452 248.059C97.568 247.831 100.69 247.058 103.719 245.773C112.034 252.013 119.731 255.794 127.143 257.398C136.393 259.4 145.134 257.528 151.696 253.42C158.426 249.207 163.085 243.34 166.43 237.318C195.74 279.512 192.472 329.301 189.957 336C170.659 387.407 174.871 383.182 157.957 400C134.811 423.016 69.887 437.148 70.124 443.303C70.491 452.835 127.247 451.695 169.329 444.83C169.329 444.83 138.773 491.977 144.065 494.947C149.357 497.917 204.838 452.225 224.79 453.666C229.512 454.007 269.867 506.309 287.18 495.27C291.48 492.527 255.045 458.45 256.475 456.184C258.127 453.566 363.697 489.2 371.465 481.574C361.392 462.484 317.43 446.041 293.765 431.006C343.246 423.778 451.632 457.297 449.105 443.803L372.086 406.508C393.116 407.743 413.855 407.878 434.416 405.373C437.019 392.269 261.54 371.343 315.44 290.203L338.266 255.84C341.717 259.273 345.896 262.188 350.306 264.777C360.152 270.56 371.912 274.526 383.426 275.221C394.941 275.916 407.549 272.994 414.364 262.424C415.938 259.983 417.082 257.313 417.844 254.436C444.401 248.786 463.729 223.675 465.776 196.246C466.828 182.143 462.655 167.459 452.561 154.9C471.374 114.128 469.509 80.725 453.028 61.396C444.771 51.713 432.817 46.21 419.956 45.943C411.828 45.775 403.381 47.589 394.971 51.318C387.595 42.825 377.865 34.134 365.088 28.578C357.088 25.1 348.014 23.054 337.889 23.048Z" class="selected" fill="#8b572a" fill-opacity="1"></path><path d="M357.91 45.086C375.988 52.946 387.516 70.666 394.725 81.459L409.694 71.463C408.685 69.953 407.515 68.166 406.209 66.219C418.419 62.081 431.643 64.326 439.331 73.076C448.849 84.239 452.844 107.844 438.651 141.809C431.506 136.649 422.887 132.239 412.707 128.891C412.581 124.805 411.99 120.768 410.762 116.801C406.46 102.907 393.625 92.187 373.288 87.453L369.206 104.984C385.869 108.864 391.251 114.645 393.566 122.125C395.883 129.605 394.216 141.11 389.75 154.469L406.823 160.176C408.278 155.822 409.587 151.469 410.606 147.136C441.002 157.953 449.175 176.84 447.826 194.906C446.477 212.989 433.51 230.313 417.93 235.754C416.894 230.444 415.086 224.701 412.5 218.506L395.891 225.439C402.566 241.432 401.291 249.481 399.235 252.669C397.179 255.859 392.439 257.732 384.512 257.254C376.586 256.776 366.812 253.597 359.42 249.256C354.23 246.208 350.657 242.502 348.852 239.904L355.422 230.014C367.727 211.49 329.526 191.948 321.666 198.672C316.077 203.453 310.57 208.407 305.163 213.212C297.391 208.39 290.022 200.263 288.055 192.43C294.878 190.058 301.793 186.097 308.586 180.344L296.952 166.609C277.094 181.062 265.714 179.663 248.596 167.307L256.622 129.127L240.739 109.115C206.489 226.979 168.137 184.712 115.577 164.916C111.085 163.224 104.027 189.445 109.957 192C128.227 199.873 142.507 210.216 153.649 221.754C150.889 228.386 146.777 235.262 142.145 238.162C126.203 243.006 115.119 232.337 103.989 223.357C91.744 239.941 75.544 220.732 81.839 207.113C85.697 205.58 89.324 203.521 92.618 200.994L81.69 186.694C70.222 194.542 52.705 192.762 44.475 181.832C34.069 163.902 61.784 150.146 71.631 145.972L64.751 129.34C60.98 130.893 57.286 132.628 53.684 134.54C49.374 114.917 59.478 76.371 99.314 59.64C97.61 68.042 94.789 78.69 90.714 84.062C85.528 90.897 69.482 96.2 69.482 96.2C69.482 96.2 85.528 101.503 90.712 108.337C98.044 118.002 101.328 144.749 101.328 144.749C101.328 144.749 104.613 118.002 111.945 108.337C117.129 101.503 133.175 96.2 133.175 96.2C133.175 96.2 117.129 90.898 111.945 84.063C107.623 78.366 104.718 66.756 103.052 58.165C119.746 52.013 141.284 49.56 168.66 53.433C162.325 59.255 157.5 65.653 154.695 72.397L171.314 79.31C192.838 49.797 239.88 34.816 270.308 48.362C267.724 50.156 265.178 52.003 262.671 53.903L273.57 68.23C299.732 50.887 328.429 32.514 357.912 45.087Z" class="" fill="#50e3c2" fill-opacity="1"></path><path d="M317.127 71.609C317.127 71.609 312.691 97.017 302.784 106.199C295.778 112.692 274.094 117.73 274.094 117.73C274.094 117.73 295.778 122.767 302.784 129.26C312.691 138.442 317.127 163.852 317.127 163.852C317.127 163.852 321.567 138.442 331.473 129.26C338.478 122.767 360.161 117.73 360.161 117.73C360.161 117.73 338.478 112.692 331.473 106.2C321.566 97.017 317.127 71.61 317.127 71.61Z" class="" fill="#48baff" fill-opacity="1"></path><path d="M204.713 180.412C204.713 180.412 208.649 208.318 217.436 218.402C223.649 225.533 242.881 231.066 242.881 231.066C242.881 231.066 223.649 236.6 217.436 243.73C208.649 253.815 204.713 281.723 204.713 281.723C204.713 281.723 200.777 253.815 191.991 243.73C185.778 236.6 166.545 231.066 166.545 231.066C166.545 231.066 185.778 225.533 191.991 218.402C200.777 208.318 204.713 180.412 204.713 180.412Z" class="" fill="#4a90e2" fill-opacity="1"></path><path d="M244.573 186.438C253.001 191.334 261.365 194.67 270.409 195.102C275.09 208.724 281.059 218.041 291.026 225.375C276.716 237.047 263.849 244.71 253.957 240C237.684 222.145 239.991 208.238 244.573 186.437Z" class="" fill="#50e3c2" fill-opacity="1"></path><path d="M77.416 261.27C77.416 261.27 73.697 282.849 65.391 290.646C59.518 296.16 41.336 300.437 41.336 300.437C41.336 300.437 59.518 304.717 65.391 310.23C73.697 318.028 77.416 339.607 77.416 339.607C77.416 339.607 81.137 318.028 89.444 310.23C95.317 304.717 113.499 300.438 113.499 300.438C113.499 300.438 95.317 296.16 89.444 290.646C81.137 282.849 77.416 261.27 77.416 261.27Z" class="" fill="#48baff" fill-opacity="1"></path><path d="M440.216 270.543C440.216 270.543 435.266 302.243 424.216 313.699C416.402 321.799 392.216 328.086 392.216 328.086C392.216 328.086 416.402 334.372 424.216 342.473C435.266 353.928 440.216 385.629 440.216 385.629C440.216 385.629 445.165 353.929 456.216 342.473C464.029 334.373 488.216 328.086 488.216 328.086C488.216 328.086 464.029 321.8 456.216 313.699C445.165 302.243 440.216 270.543 440.216 270.543Z" class="" fill="#48baff" fill-opacity="1"></path><path d="M304.815 338.287C304.815 338.287 308.026 355.825 315.195 362.162C320.265 366.643 335.959 370.122 335.959 370.122C335.959 370.122 320.266 373.597 315.196 378.078C308.026 384.416 304.815 401.955 304.815 401.955C304.815 401.955 301.604 384.415 294.434 378.078C289.364 373.597 273.67 370.121 273.67 370.121C273.67 370.121 289.364 366.643 294.434 362.162C301.604 355.825 304.814 338.287 304.814 338.287Z" class="" fill="#48baff" fill-opacity="1"></path><path d="M188.66 382.828C188.66 382.828 191.155 397.63 196.724 402.978C200.662 406.761 212.851 409.695 212.851 409.695C212.851 409.695 200.662 412.63 196.724 416.412C191.154 421.761 188.66 436.562 188.66 436.562C188.66 436.562 186.166 421.761 180.597 416.412C176.659 412.63 164.468 409.695 164.468 409.695C164.468 409.695 176.659 406.761 180.598 402.979C186.166 397.629 188.66 382.829 188.66 382.829Z" class="" fill="#4a90e2" fill-opacity="1"></path></g></g></svg>
